!!!!SEGMENT: pl-wumfc--n53446--001-012_moniuszko-stanislaw--hrabina-no-10-zefir-goniacy-flore.krn
!!!cenid: 18xx:4099
!!!COM: Moniuszko, Stanisław
!!!COM-rismID: pe30008351
!!!CDT: 1819/05/05-1872/06/04
!!!CNT: Polish
!!!OPR: Hrabina
!!!OTL: No. 10. Zefir goniący Florę
!!!OMV: 012
!!!PDT:
!!!AGN:
!!!SMS-siglum: PL-Wumfc
!!!SMS-shelfmark: N53446
!!!SMS-shelfwork: 001-012 M
!!!SMS-variant:
!!!SMS-altvar:
!!!NIFC-rismSourceID: 1001165649
!!!NIFC-rismChildID: 1001165649
!!!NIFC-islandoraID: pl-wumfc:6884
!!!URL-pdf-islandora: https://repozytorium.nifc.pl/islandora/object/pl-wumfc%3A6884/datastream/PDF/view
!!!URL-scan: https://polish.musicsources.pl/pl/lokalizacje/galeria/druki-muzyczne/12579-hrabina @EN{Scan on Polish Music Sources Website} @PL{Skany w portalu Dziedzictwo Muzyki Polskiej w otwartym dostępie}
!!!ONB-nifc:
!!!AIN: 1 piano
!!!key: E
**kern	**kern	**dynam
*part1	*part1	*part1
*staff2	*staff1	*
*I"[Piano.]	*I"[Piano.]	*
*>[A,B,B1,B,B2,C]	*>[A,B,B1,B,B2,C]	*
*>A	*>A	*
*Ipiano	*Ipiano	*
*ICklav	*ICklav	*
*clefF4	*clefG2	*
*k[f#c#g#d#]	*k[f#c#g#d#]	*
*E:	*E:	*
*M4/4	*M4/4	*
*met(c)	*met(c)	*
=1	=1	=1
!!LO:TX:B:a:t=Adagio
4E 4BB 4EE/	4ee 4b 4g# 4e/	f
8.r	8.r	.
16B 16E\	16gg# 16b 16g#\	.
8BL 8E\	8ff#L 8b 8g#\	.
16r	16r	.
16BK 16G# 16E\	(16eeK 16b 16g#\	.
8B 8G# 8E\	8b 8g#\)	.
16r	16r	.
16BJk 16G# 16E\	16g#Jk 16e\	.
=2	=2	=2
*^	*^	*
1B^^	8G# 8E\	1b	8g# 8e\	.
.	8ryy	.	8r	.
.	4ryy	.	4r	.
.	2ryy	.	2r	.
=3	=3	=3	=3	=3
(4B/	2E\	(4.cc#/	1f#	p
4A#X/	.	.	.	.
.	.	32dd#/LLL	.	.
.	.	32cc#/	.	.
.	.	32b/	.	.
.	.	32cc#/JJJ	.	.
4B/	4D#\	4dd#/	.	.
4F#/)	4C#\	4ee/	.	.
*v	*v	*	*	*
!!LO:LB:g=original
=4	=4	=4	=4
2dn\ 2B\	(4.ee#X/)	2b 2g#\	.
.	16ff#/LL	.	.
.	16gg#/JJ	.	.
4d#X\ 4B\	4ff#/)	4a\	.
!	!LO:TX:i:a:t=m.d.	!	!
4AA\	4r	4A<TT/	.
*	*v	*v	*
=5	=5	=5
2G# 2E 2GG#/	(4.bb 4.ee 4.b\	f >
.	32bb\LLL	.
.	32aa\	.
.	32gg#\	.
.	32ff#\JJJ	]
8e\L	8ee\L	.
8B\	8b\	.
8G#\	8g#\)	.
8F#T\J	8f#T\J	.
=6	=6	=6
(<4E\	(4d#/	.
8.D#/L	8.d#/L	.
16C#/Jk)	16c#/Jk)	.
(4C#T/	(4c#T/	.
8.BB/L	8.B/L	.
16AA#X/Jk)	16A#X/Jk)	.
!!LO:LB:g=original
=7	=7	=7
8AA#X/	8A#X/	.
16r	16r	.
16F# 16C# 16AA#/	16ff# 16cc# 16f#\	ff
8F#L 8C# 8AA#/	8ff#L 8cc# 8f#\	.
16r	16r	.
16F#Jk 16C# 16AA#/	16ff#J 16cc# 16f#\	.
8F#L 8C# 8AA#/	8ff#L 8cc# 8f#\	.
16r	16r	.
16F#K 16AA#/	16ee 16cc# 16f#\	.
8F# 8AA#/	8ee 8cc# 8f#\	.
16r	16r	.
16F#Jk 16AA#/	16cc#Jk 16e\	.
=8	=8	=8
*^	*	*
2F#/	2BB\	4cc# 4e/	>
.	.	4b 4d#/	.
4Gn/	4E\	4a#X 4c#/	.
4An/	4FF#\	4ee 4cn/	]]
=9	=9	=9	=9
*	*	*^	*
2G#X/	2BB\	2e/	2B\	p
.	.	8qg#/	.	.
2ryy	2BB/ 2BBB/	8.f#/L	2A\	.
.	.	16e/K	.	.
.	.	8.d#/	.	.
.	.	16b/Jk	.	.
*v	*v	*	*	*
*	*v	*v	*
!!LO:LB:g=original
=10	=10	=10
8EE/	[<1e 1G#	.
8BL 8G#'\	.	.
8G# 8E'\	.	.
8BJ 8G#'\	.	.
8EE'/	.	.
8BL 8G#'\	.	.
8G# 8E'\	.	.
8BJ 8G#'\	.	.
.	(16qqe/LL]	.
.	16qqf#/	.
.	16qqe/	.
.	16qqd#/	.
.	16qqe/	.
.	16qqf#/	.
.	16qqg#/	.
.	16qqa/	.
.	16qqb/	.
.	16qqcc#/	.
.	16qqdd#/	.
.	16qqee/	.
.	16qqff#/	.
.	16qqgg#/	.
.	16qqaa/	.
.	16qqbb/	.
.	16qqccc#/	.
.	16qqddd#/JJ)	.
=11	=11	=11
*	*^	*
8EE'/	8eee/	2ee\	p
8BL 8G#'\	8ryy	.	.
8G# 8E'\	4ryy	.	.
8BJ 8G#'\	.	.	.
8AL 8F# 8E'\	2ryy	8.dd#\L	.
8BJ 8A 8F#'\	.	.	.
.	.	32cc#\LL	.
.	.	32dd#\JJJ	.
8AL 8E'\	.	8.ee\L	.
8c#J 8A'\	.	.	.
.	.	16cc#\Jk	.
*	*v	*v	*
!!LO:PB:g=original
=12	=12	=12
8G#L 8E'\	(>2b/	.
8e 8B 8G#'\	.	.
8G# 8E'\	.	.
8eJ 8B 8G#'\	.	.
8c#L 8A 8E'\	8.aT/L	.
8eJ 8c# 8A'\	.	.
.	32g#/LL	.
.	32a/JJJ	.
8BL 8G# 8E'\	8.b/L	.
8eJ 8B 8G#'\	.	.
.	16g#/Jk)	.
=13	=13	=13
8AL 8F# 8E'\	(8.f#/L	<
8c#J 8A 8F#'\	.	.
.	16g#/Jk	.
8AL 8F# 8E'\	16a\LL	.
.	16cc#\	.
8c#J 8A 8F#'\	16ff#\	.
.	16aa\JJ	[
8AL 8F# 8E'\	8gg#\L	>
8d#J 8A 8F#'\	8ff#\	.
8AL 8F# 8E'\	8.dd#\	.
8d#J 8A 8F#'\	.	.
.	16b\Jk)	]]
!!LO:LB:g=original
=14	=14	=14
8G#L 8E'\	(8b/L	.
.	16qqcc#/LL	.
.	16qqb/JJ	.
8eJ 8B 8G#'\	16a#X/L	.
.	16b/JJ	.
8GG#'\L	16ee/LL	.
.	16b/	.
8eJ 8B 8G#'\	16an/	.
.	16g#/JJ	.
8BB'\L	16f#T/LL)	.
.	16B/	.
8d# 8A'\	16f#'/	<
.	16g#'/JJ	.
8B 8A 8F#'\	16an'\LL	.
.	16b'\	.
8d#J 8B 8A'\	16cc#'\	.
.	16dd#'\JJ	[[
=15	=15	=15
8E 8EE'/	2ee\	fp
8eL 8B 8G#'\	.	.
8B 8G# 8E'\	.	.
8eJ 8B 8G#'\	.	.
8AL 8F# 8E'\	8dd#t\L	.
8BJ 8A 8F#'\	16cc#\L	<
.	16dd#\JJ	[
8c#L 8A 8E'\	8.ff#\L	>
8eJ 8c# 8A'\	.	]
.	32ee\LL	.
.	32cc#\JJJ	.
!!LO:LB:g=original
=16	=16	=16
8BL 8D#'\	(>2b/	.
8f#J 8B 8F#'\	.	.
8G#L 8E 8Dn'\	.	.
8BJ 8G# 8E'\	.	.
!	!LO:TUP:a:problem:brak klamry	!
8A#XL 8F# 8C#X'\	24a#X/LL	.
.	24b/	.
.	24a#/	.
8eJ 8A# 8F#'\	16g##X/	.
.	16a#/JJ	.
8AnL 8Cn'\	8.ee/L	.
8eJ 8A 8E'\	.	.
.	16e/Jk)	.
=17	=17	=17
8G#L 8BB'\	(8.g#/L	<
8eJ 8B 8G#'\	.	.
.	16a/Jk	.
8BB'\L	16b\LL	.
.	16ee\	.
8eJ 8B 8G#'\	16ff#\	.
.	16gg#\JJ	[
!LO:TX:t=P:problem:mixed beam	!	!
8BBB'/L	8.aa\L	>
8d#\J 8B\ 8F#'\	.	.
.	32ff#\LL	.
.	32dd#\JJJ	.
8BB'\L	16b/LL	.
.	16a/	.
8BJ 8A 8D#'\	16f#/	.
.	16b/JJ)	]]
!!LO:LB:g=original
=18	=18	=18
8E 8EE'/	[4e/	.
8BL 8G#'\	.	.
8G# 8E'\	32e/LLL]	.
.	32f#/	.
.	32g#/	.
.	32a/	.
8BJ 8G#'\	32b/	.
.	32cc#/	.
.	32dd#/	.
.	32ee/JJJ	.
.	(32qee/	.
8G#L 8E'\	4e/)	.
8B 8G#'\	.	.
8G# 8E'\	8.r	.
16BJk 16G#'\	.	.
32C#LLL 32AA 32CC#/	32eeLLL 32a 32e/	ff
32C#JJJ 32AA 32CC#/	32eeJJJ 32a 32e/	.
=19	=19	=19
16C# 16AA 16CC#/	16ee 16a 16e/	.
16r	16r	.
8eL 8c# 8A'\	8r	p
!	!LO:TX:i:a:t=leggierissino	!
8c# 8A 8E'\	8.r	.
8eJ 8c# 8A'\	.	.
.	(32cc#\LLL	.
.	32ee\JJJ	.
8c#L 8A 8E'\	8aa\L)	.
8e 8c# 8A'\	16r	.
.	(32ee\LL	.
.	32aa\JJJ	.
8AA'\	8.ccc#\L)	.
8eJ 8c# 8A'\	.	.
.	(32bb\LL	.
.	32aa\JJJ)	.
!!LO:LB:g=original
=20	=20	=20
8GG#'\L	([4.bbT\	.
8e 8B 8G#'\	.	.
8B 8G# 8E'\	.	.
!	!LO:TUP:a	!
8eJ 8B 8G#'\	48bb\LLL]	.
.	48aa#X\	.
.	48bb\	.
.	48ccc#\	.
.	48ddd#\	.
.	48eee\JJJ	.
8BL 8G# 8E'\	4ee\)	.
8e 8B'\	.	.
8B 8G# 8E'\	8.r	.
16eJk 16B'\	.	.
32CnLLL 32GGn 32CCn/	32eeLLL 32gn 32e/	ff
32CJJJ 32GG 32CC/	32eeJJJ 32g 32e/	.
=21	=21	=21
16Cn 16GGn 16CCn/	16ee 16gn 16e/	.
16r	16r	.
8enL 8cn 8Gn'\	8r	.
8c 8G 8E'\	8.r	.
8eJ 8c 8G'\	.	.
.	(32ee\LLL	.
.	32ggn\JJJ	.
8cL 8G 8E'\	8cccn\L)	.
8e 8c 8G'\	16r	.
.	(32gg\LL	.
.	32ccc\JJJ	.
8c 8G 8E'\	8.eee\L	.
8eJ 8c 8G'\	.	.
.	32dddn\LL	.
.	32ccc\JJJ)	.
!!LO:PB:g=original
=22	=22	=22
*	*8va	*
8GGn/	[4.dddnT\	.
8dnL 8B 8Gn\	.	.
8B 8G 8Dn\	.	.
!	!LO:TUP:a	!
8dJ 8B\	48ddd\LLL]	.
.	48ccc#\	.
.	48ddd\	.
.	48eee\	.
.	48fff#\	.
.	48gggn\JJJ	.
8BL 8G\	16ggn\KL	.
*	*X8va	*
.	16r	.
8d 8B\	8b\	.
.	8qdd/	.
8B 8G\	(8.ccn\	.
8dJ 8B\	.	.
.	16b\Jk)	.
=23	=23	=23
8BB 8BBB/	(8b/L	.
8d#XL 8A 8F#\	8a/J)	.
8D#\	[4ff#^^\	.
8BJ 8A\	.	.
8F#\L	16ff#\LL]	.
.	32r	.
.	(32ee\JJk	.
8B 8A\	16dd#\LL)	.
.	32r	.
.	(32ccn\JJk	.
8BB\	16b/LL)	.
.	32r	.
.	(32a/JJ	.
8BJ 8A 8D#\	16gn/)LL	.
.	32r	.
.	32f#/JJk	.
!!LO:LB:g=original
=24	=24	=24
*^	*	*
8r	2E\	(8..a/L	.
8B/L	.	.	.
.	.	32g#X/Jkk)	.
8B'</	.	(4..gn^/	.
8B'</J	.	.	.
8E\L	2ryy	.	.
8B 8Gn\	.	.	.
.	.	32f#/LLL	.
.	.	32g/JJJ	.
8BB\	.	8.b/L	.
8BJ 8F# 8D#\	.	.	.
.	.	32a/LL	.
.	.	32g/JJJ)	.
*v	*v	*	*
=25	=25	=25
8E'\L	(8f#/L	.
8BJ 8Gn'\	8e/J)	.
8Cn\L	[4ggn^^\	.
8cnJ 8G 8E\	.	.
!	!LO:TUP:a:problem:klamra łukowa	!
8GGn\L	24gg\LL]	.
.	24ff#\	.
.	24ee\JJ	.
!	!LO:TUP:a:problem:klamra łukowa	!
8BJ 8G\	24ddn\LL	.
.	24ccn\	.
.	24b\JJ	.
!	!LO:TUP:a:problem:klamra łukowa	!
8AA/L	24a/LL	.
.	24gn/	.
.	24f#/JJ	.
!	!LO:TUP:a:problem:klamra łukowa	!
8F#J 8E/	24e/LL	.
.	24dn/	.
.	24cn/JJ	.
!!LO:LB:g=original
=26	=26	=26
8BB\L	(>4B^T/	.
8F#J 8D#\	.	.
!	!	!LO:HP:b:t=cre-scen-do:ext2=ud
.	32qqA#X/LLL	<
.	32qqB/JJJ	.
8AAn\L	4c#X^T/	.
8GnJ 8E\	.	.
.	32qqB/LLL	.
.	32qqc#/JJJ	.
8Dn\L	4dn^T/	.
8A-XJ 8Fn\	.	.
.	32qqc#/LLL	.
.	32qqd/JJJ	.
8BB\L	4d#X^t/	[
8AnJ 8F#X\	.	.
.	32qqc#/LLL	.
.	32qqd#/JJJ)	.
=27	=27	=27
*	*	*^
!	!	!	!LO:DY:b=2
8EE\L	N(2e^/	f	p
8B 8G#\	.	.	.
8G# 8E\	.	.	.
8BJ 8G#\	.	.	.
8AL 8F# 8E\	8.d#t/L	.	.
8BJ 8A 8F#\	.	.	.
.	32c#/LL	.	.
.	32d#/JJJ	.	.
8G#L 8E\	8.e/L	.	.
8BJ 8G#\	.	.	.
.	16B/Jk	.	.
*	*	*v	*v
!!LO:LB:g=original
=28	=28	=28
*^	*^	*
*ped	*	*	*	*
8AAA/	2ryy	8r	2d#\	.
!	!	!	!	!LO:DY:a
8eL 8A 8Gn'\	.	16ggnLL 16ee'/	.	pp
.	.	16ggJJ 16ee'/	.	.
8A 8G 8E'\	.	16ggLL 16ee'/	.	.
.	.	16ff# 16dd#'/	.	.
8eJ 8A 8G'\	.	16ffn 16ddn'/	.	.
*Xped	*	*	*	*
.	.	16eeJJ 16cc#'/	.	.
!LO:TX:i:a:t=m.g.	!	!	!	!
8AL 8G 8E'\	4c#>\N)	16eeLL 16cc#'/	4ryy	.
.	.	16ff 16dd'/	.	.
8e 8A 8G'\	.	16ff#X 16dd#X'/	.	.
.	.	16ggJJ 16ee'/	.	.
8G 8E'\	4ryy	16ggLL 16ee'/	4r	.
.	.	16gg#X 16ddn'/	.	.
8AJ 8G'\	.	16aa 16cc#'/	.	.
.	.	16ggnJJ 16ee'/	.	.
=29	=29	=29	=29	=29
!LO:TX:i:a:t=m.g.	!	!	!	!
8Dn 8DDn/	(2dn>^^\	8ff# 8dd#/	2ryy	.
8AL 8F#'\	.	8r	.	.
8F# 8D'\	.	4r	.	.
8AJ 8F#'\	.	.	.	.
!	!	!LO:TX:i:b:t=m.d.	!	!
8GnL 8E 8D'\	2r	2r	8.c#T>\L	.
8A 8G 8E'\	.	.	.	.
.	.	.	32B\LL	.
.	.	.	32c#\JJJ	.
8F# 8D'\	.	.	8.d#\L	.
8AJ 8F#'\	.	.	.	.
.	.	.	16A\Jk)	.
!!LO:LB:g=original
=30	=30	=30	=30	=30
2ryy	8GGn 8GGGn\	8r	2cn^\	.
!	!	!	!	!LO:DY:a
.	8dnL 8Gn 8Fn'\	16ffnLL 16ddn'/	.	pp
.	.	16ffJJ 16dd'/	.	.
.	8G 8F 8Dn'\	16ffLL 16dd'/	.	.
.	.	16ee 16cc#'/	.	.
.	8dJ 8G 8F'\	16ee-X 16ccn'/	.	.
.	.	16ddnJJ 16b'/	.	.
!LO:TX:i:a:t=m.g.	!	!	!	!
4.B>\)	8GL 8F 8D\	16ddLL 16b'/	2ryy	.
.	.	16ee-X 16cc'/	.	.
.	8dJ 8G 8F'\	16een 16cc#X'/	.	.
.	.	16ffJJ 16dd'/	.	.
.	8GL 8F 8D'\	16ffLL 16dd'/	.	.
.	.	16ff#X 16a'/	.	.
8B>\	8GJ 8F\	16ggn 16b'/	.	.
.	.	16ffnJJ 16dd'/	.	.
=31	=31	=31	=31	=31
!	!	!	!	!LO:DY:a
[<2C#X\	8GnL 8E/	8.ffnL 8.ddn/	8.B\L	pp sf ???
.	8G 8E/	.	.	.
.	.	16eeJk 16cc#/	16A#X\Jk	.
.	8G 8E/	4ee 4cc#/	[4A#\	.
.	8GJ 8E/	.	.	.
!	!	!LO:TX:i:b:t=m.d.	!	!
8C#\]	8G 8E/	2r	16A#\LL]	.
.	.	.	16B'\	<
8ryy	8GL 8GGn'/	.	16c#'\	.
.	.	.	16d#X'\JJ	.
4ryy	8F# 8FF#'/	.	16e'\LL	.
.	.	.	16f#'\	.
.	8EJ 8EE/	.	16g#X'\	.
.	.	.	16a#X'\JJ	[
*v	*v	*	*	*
*	*v	*v	*
!!LO:PB:g=original
=32	=32	=32
8D# 8DD#/	8.cc#\L	sf <
8AL 8F# 8D#\	.	.
.	16b\Jk	.
8A 8F# 8D#\	[4b\	.
8AJ 8F# 8D#\	.	.
8A 8F# 8D#\	16b/LL]	.
.	16cc# 16c#'/	.
8BL 8BB^\	16dd# 16d#'/	.
.	16eeJJ 16e'/	.
8A#X 8AA#X^\	16ff#LL 16f#'\	.
.	16gg# 16g#'\	.
8AnJ 8AAn^\	16aan 16an'\	.
.	16aa#XJJ 16a#X'\	[[
=33	=33	=33
8G#L 8GG#\	[4bb [4b\	sf
8eJ 8B 8G#\	.	.
8EE/L	16bb]LL 16b\]	.
.	(32gg#\L	.
.	32bb\)J	.
8BJ 8G# 8E/	(32ee\L	.
.	32gg#\)	.
.	(32b\	.
.	32ee\JJJ)	.
8AA\L	[4ccn^^\	.
8cnJ 8A 8E\	.	.
8FFn/L	16cc\LL]	.
.	(32a\L	.
.	32cc\JJJ)	.
8AJ 8Fn/	(32fn/LLL	.
.	32a/)	.
.	(32cn/	.
.	32f/JJJ)	.
!!LO:LB:g=original
=34	=34	=34
8Cn\L	(4..e^/	.
8GnJ 8E\	.	.
8GGn\L	.	.
8BJ 8E\	.	.
!	!	!LO:HP:b:t=dim.
.	32d#/LLL	>
.	32e/JJJ	.
8AA\L	8.ddn\L	.
8eJ 8A 8F#X\	.	.
.	16ccn\Jk	.
8BB\L	16a/LL	.
.	16f#/	.
8BJ 8A 8F#\	16d#X/	.
.	16b/JJ)	.
=35	=35	=35
8EL 8EE\	8e 8G#/	.
8eJ 8B 8G#\	16bbLL 16gg#'\	pp
.	16bbJJ 16gg#'\	.
8EL 8EE\	(16bbLL 16gg#\	.
.	16bb-X 16ggn\)	.
8eJ 8cn 8A 8F#\	16aa 16ff#'\	.
.	16aaJJ 16ff#'\	.
8EL 8EE\	(16aaLL 16ff#\	.
.	16aa-X 16ffn\)	.
8eJ 8c#X 8A#X\	16ggn 16ee'\	.
.	16ggJJ 16ee'\	.
8BBL 8BBB\	16ffLL 16ee'\	.
.	8qgg#X/	.
.	(32ff\L	.
.	32ee#X\JJJ	.
8d#J 8B 8An\	16ffLL 16dd#\	.
.	16bb-\JJ)	.
!!LO:LB:g=original
=36	=36	=36
*^	*^	*
8e 8B 8G# 8E\	8ryy	8gg# 8ee\	8ryy	.
8d#/L	(4.B\	16bb'/LL	16b\LL	.
.	.	16bb'/JJ	16b\JJ	.
8e 8c#/	.	(16bb/LL	8b\L	.
.	.	16aa#X/)	.	.
8f#J 8d#/	.	16aan'/	16b'\L	.
.	.	16aa'/JJ	16b'\JJ	.
8e/L	8E\L	(16aa/LL	8b\L	.
.	.	16gg#/)	.	.
8dn/	8E#X\	16ggn'/	16b'\L	.
.	.	16gg'/JJ	16b'\JJ	.
8c#/	8F#\	(16ff#/LL	8a#X\L	.
.	.	8qgg#X/	.	.
.	.	32ff#/L	.	.
.	.	32ee#X/JJJ	.	.
8d#X/J	8BB\J)	16ff#/LL	8an\J	.
.	.	16bb/JJ)	.	.
*v	*v	*	*	*
*	*v	*v	*
=37	=37	=37
16E\LL	8ee 8g#\	.
16e\	.	.
!	!	!LO:HP:b:t=di-mi-nu-en-do:ext2=ud
16A\	16cccnLL 16aa 16ff# 16ee\	>
16e\JJ	16cccJJ 16aa 16ff# 16ee\	.
16E\LL	8bbL 8gg# 8ee 8ddn\	.
16e\	.	.
16A\	16aaL 16ff# 16ee 16ccn\	.
16e\JJ	16aaJJ 16ff# 16ee 16cc\	.
16E\LL	8gg#L 8ee 8b\	.
16e\	.	.
16A\	16eeL 16ccn 16a\	.
16e\JJ	16eeJJ 16cc 16a\	.
16E\LL	8eeL 8b 8g#/	.
16e\	.	.
16A\	16eeL 16cc 16a 16e/	.
16E\JJ	16eeJJ 16cc 16a 16e/	.
!!LO:LB:g=original
=38	=38	=38
16EE'/LL	8ee 8b 8g# 8e/	.
16E'/	.	.
16AA'/	16ccnLL 16a 16f# 16e'/	.
16E'/JJ	16ccJJ 16a 16f# 16e'/	.
16EE'/LL	8bL 8g# 8e 8dn/	.
16E'/	.	.
16AA'/	16aL 16f# 16e 16cn/	.
16E'/JJ	16aJJ 16f# 16e 16c/	.
16EE'/LL	8g#L 8e 8B/	.
16E'/	.	.
16AA'/	16eL 16c 16A/	.
16E'/JJ	16eJJ 16c 16A/	]
16EE'/LL	8eL 8B 8G#/	.
16E'/	.	.
16Cn 16AA'/	16eL 16A/	.
16E'/JJ	16eJJ 16A/	.
=39	=39	=39
*	*^	*
16ELL 16BB 16EE\	[4e/	16G#</LL	.
16E 16BB 16EE\	.	16G#</	.
16E 16BB 16EE\	.	16G#</	.
16EJJ 16BB 16EE\	.	16G#</JJ	.
16ELL 16BB 16EE\	16e] 16G#</	4ryy	.
*	*8va	*	*
16E 16BB 16EE\	32ggg#\LLL	.	>
.	32bbb\JJJ	.	.
16E 16BB 16EE\	32eee\LLL	.	.
.	32ggg#\	.	.
16EJJ 16BB 16EE\	32bb\	.	.
.	32eee\JJJ	.	.
16ELL 16BB 16EE\	16gg#/	16ryy	.
*	*v	*v	*
*	*X8va	*
*	*^	*
16E 16BB 16EE\	4ryy	16G#</LL	.
16E 16BB 16EE\	.	16G#</	.
16EJJ 16BB 16EE\	.	16G#</JJ	.
16ELL 16BB 16EE\	.	16G#</	.
16E 16BB 16EE\	32eee\LLL	16ryy	.
.	32ggg#\JJJ	.	.
16E 16BB 16EE\	32bb\LLL	8ryy	.
.	32eee\	.	.
16EJJ 16BB 16EE\	32gg#\	.	.
.	32bb\JJJ	.	.
*	*v	*v	*
!!LO:LB:g=original
=40	=40	=40
16ELL 16BB 16EE\	16ee\	.
16E 16BB 16EE\	16G#</LL	.
16E 16BB 16EE\	16G#</	.
16EJJ 16BB 16EE\	16G#</JJ	.
16ELL 16BB 16EE\	16G#</	.
16E 16BB 16EE\	32gg#\LLL	.
.	32bb\JJJ	.
16E 16BB 16EE\	32ee\LLL	.
.	32gg#\	.
16EJJ 16BB 16EE\	32b\	.
.	32ee\JJJ	.
16ELL 16BB 16EE\	16g#/	.
16E 16BB 16EE\	16G#</LL	.
16E 16BB 16EE\	16G#</	.
16EJJ 16BB 16EE\	16G#</JJ	.
16ELL 16BB 16EE\	16G#</	.
16E 16BB 16EE\	32ee\LLL	]
.	32gg#\JJJ	.
16E 16BB 16EE\	32b\LLL	.
.	32ee\	.
16EJJ 16BB 16EE\	32g#\	.
.	32b\JJJ	.
=41	=41	=41
8E 8BB 8EE/	2e 2B 2G#/	.
8r	.	.
4EE^/	.	.
4AA^/	4e 4c# 4A^/	.
4EE^/	4e 4B 4G#^/	.
=42	=42	=42
2AA^/	2e 2c# 2A^/	.
4EE^/	4e 4B 4G#^/	.
4AA^/	4e 4c# 4A^/	.
=43	=43	=43
2E 2EE^;/	2e 2B 2G#^;/	.
2r	2r	.
!!LO:PB:g=original
=44||	=44||	=44||
*M2/4	*M2/4	*
*clefG2	*	*
!!LO:TX:B:a:t=Allegro.
(4dn (4B^/	(8gn\L	p
.	8ggn\)	<
8e-XL 8cn/)	8gg'\	.
8enJ 8c#X/	8gg'\J	[[
=45	=45	=45
4fn 4dn/	8ggn^\L	>
.	(16ffn\L	.
.	16ee\JJ	.
8eL 8c#/	16ddn\LL	.
.	16ccn\	.
8e-XJ 8cn/)	16b\	.
.	16a\JJ)	]]
=46	=46	=46
*	*	*^
!	!	!	!LO:HP:a
8dnL 8B/	(8gn\L	<	>
8e-X 8cn/	8ggn\)	.	]
8en 8c#X/	8gg'\	.	.
8fnJ 8d/	8gg'\J	[	.
*	*	*v	*v
=47	=47	=47
8fn 8dn/	(16ggn\LL	sf
.	16ffn\	.
8r	16ee\	.
.	16ddn\JJ	.
4r	16ccn\LL	.
.	16b\	.
.	16a\	.
.	16gn\JJ)	.
!!LO:LB:g=original
=48	=48	=48
(4e 4c#^/	(8a\L	<
.	8aa\)	.
8fnL 8dn/	8aa'\	.
8f#XJ 8d#X/	8aa'\J	[[
=49	=49	=49
4g# 4e^/	8aa^^\L	>
.	(16ggn\L	.
.	16ff#\JJ	.
8f#L 8d#/	16ee\LL	.
.	16ddn\	.
8fnJ 8dn/)	16cc#\	.
.	16b\JJ)	]]
=50	=50	=50
8eL 8c#^/	(8a\L	<
8fn 8dn/	8aa\)	.
8f#X 8d#X/	8aa'\	.
8gnJ 8e/	8aa'\J	[[
=51	=51	=51
4gn 4e/	16aa^^\LL	sf
.	(16ggn\	.
.	16ff#\	.
.	16ee\JJ	.
4r	16ddn\LL	.
.	16cc#\	.
.	16b\	.
.	16a\JJ)	.
!!LO:LB:g=original
=52	=52	=52
(4f# 4d#^/	(8b\L	<
.	8bb\)	.
8gnL 8e/	8bb'\	.
8g#XJ 8e#X/	8bb'\J	[[
=53	=53	=53
4a 4f#^/	8bb^^\L	>
.	(16aa\L	.
.	16ggn\JJ	.
8g#XL 8e#X/	16ff#\LL	.
.	16ee\	.
8gnJ 8en/)	16ddn\	.
.	16ccn\JJ)	]]
=54	=54	=54
8f#L 8d#/	(8b\L	<
8gn 8e/	8bb\)	.
8g#X 8e#X/	8bb'\	.
8aJ 8f#/	8bb'\J	[[
=55	=55	=55
4a 4f#/	16bb^^\LL	sf >
.	(16aa\	.
.	16ggn\	.
.	16ff#\JJ	.
4r	16ee\LL	.
.	16dd#\	.
.	16ee\	.
.	16ff#\JJ)	]]
!!LO:LB:g=original
=56	=56	=56
(>16e/LL	(16ggn\LL	pp
16gn/	16ee\	.
16e/	16gg\	.
16g/JJ	16ee\JJ	.
16e/LL	16gg\LL	.
16g/	16ee\	.
16e/	16gg\	.
16g/JJ	16ee\JJ	.
=57	=57	=57
!	!	!LO:HP:b:t=molto cre-scen-do:ext=ud:ext2=ud
16f#LL 16dn/	16bbLL 16ff#\	<
16gn/	16ee\	.
16f# 16d/	16bb 16ff#\	.
16g/JJ	16ee\JJ	.
16f#LL 16d/	16bbLL 16ff#\	.
16g/	16ee\	.
16f# 16d/	16bb 16ff#\	.
16g/JJ	16ee\JJ	.
=58	=58	=58
16eLL 16cn/	16ee\LL	.
16gn/	16ccn\	.
16e 16c/	16ee\	.
16g/JJ	16cc\JJ	.
16eLL 16c/	16ee\LL	.
16g/	16cc\	.
16e 16c/	16ee\	.
16g/JJ	16cc\JJ	.
!!LO:LB:g=original
=59	=59	=59
16dnLL 16B/	16ggnLL 16ee\	.
16gn/	16ddn\	.
16d 16B/	16gg 16ee\	.
16g/JJ	16dd\JJ	.
16dLL 16B/	16ggLL 16ee\	.
16g/	16dd\	.
16d 16B/	16gg 16ee\	.
16g/JJ	16dd\JJ	.
=60	=60	=60
16A/LL	16cccnLL 16aa\	.
16e/	16ee\	.
16A/	16ccc 16aa\	.
16e/JJ	16ee\JJ	.
16A/LL	16cccLL 16aa\	.
16e/	16ee\	.
16A/	16ccc 16aa\	.
16e/JJ	16ee\JJ	.
*clefF4	*	*
=61	=61	=61
16Gn\LL	16eeeLL 16bb\	.
16A\	16ee\	.
16G\	16eee 16bb\	.
16A\JJ	16ee\JJ	.
16G\LL	16eeeLL 16bb\	.
16A\	16ee\	.
16G\	16eee 16bb\	.
16A\JJ)	16ee\JJ	.
!!LO:PB:g=original
=62	=62	=62
(16Fn\LL	16aaLL 16ffn\	.
16cn\	16ccn\	.
16F\	16aa 16ff\	.
16c\JJ	16cc\JJ	.
16F\LL	16aaLL 16ff\	.
16c\	16cc\	.
16F\	16aa 16ff\	.
16c\JJ	16cc\JJ	.
=63	=63	=63
16E\LL	16cccnLL 16ggn\	.
16Fn\	16ccn\	.
16E\	16ccc 16gg\	.
16F\JJ	16cc\JJ	.
16E\LL	16cccLL 16gg\	.
16F\	16cc\	.
16E\	16ccc 16gg\	.
16F\JJ)	16cc\JJ)	[[
=64	=64	=64
16F#LL 16Dn\	([4cccn 4ff#X 4ccn\	f
16A\	.	.
16F# 16D\	.	.
16A\JJ	.	.
16F#LL 16D\	16ccc\LL]	.
16A\	16bb\	.
16F# 16D\	16aa\	.
16A\JJ	16bb\JJ)	.
!!LO:LB:g=original
=65	=65	=65
16F#LL 16Dn\	([4cccn^^ 4ff# 4ccn\	.
16A\	.	.
16F# 16D\	.	.
16A\JJ	.	.
16F#LL 16D\	16ccc\LL]	.
16A\	16bb\	.
16F# 16D\	16aa\	.
16A\JJ	16bb\JJ)	.
=66	=66	=66
8F#L 8Dn'\	(16cccn^^\LL	.
.	16bb\	.
8A 8F#'\	16aa\	.
.	16bb\JJ)	.
8F# 8D'\	(16ccc^^\LL	.
.	16bb\	.
8AJ 8F#'\	16aa\	.
.	16bb\JJ)	.
=67	=67	=67
8F#L 8Dn'\	(16cccn^^\LL	.
.	16bb\	.
8A 8F#'\	16aa\	.
.	16bb\JJ)	.
8F# 8D'\	(16ccc^^\LL	.
.	16bb\	.
8AJ 8F#'\	16aa\	.
.	16bb\JJ)	.
!!LO:LB:g=original
=68	=68	=68
16F#LL 16D#X\	([4ccc#X 4ff# 4cc#X^^\	ff
16A\	.	.
16F# 16D#\	.	.
16A\JJ	.	.
16F#LL 16D#\	16ccc#\LL]	.
16A\	16bb\	.
16F# 16D#\	16aa#X\	.
16A\JJ	16bb\JJ)	.
=69	=69	=69
16F#LL 16D#\	([4ccc# 4ff# 4cc#^^\	.
16A\	.	.
16F# 16D#\	.	.
16A\JJ	.	.
16F#LL 16D#\	16ccc#\LL]	.
16A\	16bb\	.
16F# 16D#\	16aa#X\	.
16A\JJ	16bb\JJ)	.
=70	=70	=70
8F#L 8D#'\	(16ccc#^^\LL	.
.	16bb\	.
8An 8F#'\	16aa#X\	.
.	16bb\JJ)	.
8F# 8D#'\	(16ccc#^^\LL	.
.	16bb\	.
8AJ 8F#'\	16aa#\	.
.	16bb\JJ)	.
=71	=71	=71
8F#L 8D#'\	(16ccc#^^\LL	.
.	16bb\	.
8An 8F#'\	16aa#X\	.
.	16bb\JJ)	.
8F# 8D#'\	(16ccc#^^\LL	.
.	16bb\	.
8AJ 8F#'\	16aa#\	.
.	16bb\JJ)	.
!!LO:LB:g=original
=72	=72	=72
8BL 8D# 8BB'\	8fff#L 8aa 8ff#'\	fff
8B 8E 8C#'\	8eee 8aa 8ff#'\	.
8B 8F# 8D#'\	8ddd# 8aa 8ff#'\	.
8BJ 8G# 8E'\	8ccc#J 8aa 8ff#'\	.
=73	=73	=73
8BL 8A 8F#'\	8bbL 8aa 8ff#'\	.
8B 8G# 8E'\	8ccc# 8aa 8ff#'\	.
8B 8F# 8D#'\	8ddd# 8aa 8ff#'\	.
8BJ 8E 8C#'\	8eeeJ 8aa 8ff#'\	.
=74	=74	=74
8BL 8D# 8BB'\	8fff#L 8aa 8ff#'\	.
8B 8E 8C#'\	8eee 8aa 8ff#'\	.
8B 8F# 8D#'\	8ddd# 8aa 8ff#'\	.
8BJ 8G# 8E'\	8ccc#J 8aa 8ff#'\	.
=75	=75	=75
8BL 8A 8F#'\	8bbL 8aa 8ff#'\	.
8B 8G# 8E'\	8ccc# 8aa 8ff#'\	.
8B 8F# 8D#'\	8ddd# 8aa 8ff#'\	.
8BJ 8E 8C#'\	8eeeJ 8aa 8ff#'\	.
!!LO:LB:g=original
=76	=76	=76
8B 8D# 8BB\	8fff# 8aa 8ff#\	.
8B\L	(16bb\LL	.
.	16b\JJ	.
8B\	8bb\)	.
8B\J	(16bb\LL	.
.	16b\JJ	.
=77	=77	=77
8B\L	8bb\)	.
8B\	(16bb\LL	.
.	16b\JJ	.
8B\	8bb\)	.
8B\J	(16bb\LL	.
.	16b\JJ	.
=78	=78	=78
8B\	8bb\)	.
8c#'\L	8ccc#L 8cc#'\	.
8A'\	8aa 8a'\	.
8F#'\J	8ff#J 8f#'\	.
=79	=79	=79
8D#\	8dd# 8d#'/	.
8BL 8BB'/	8bL 8f# 8d#'/	.
8F# 8FF#'/	8dd# 8b 8f#'/	.
8D#J 8DD#'/	8ff#J 8dd# 8b'/	.
=80	=80	=80
!LO:TX:t=P:problem:spiccato u dołu	!	!
8BB 8BBB^^</	8bb 8ff# 8dd#^^\	.
8r	8r	.
4r;	4r;	.
!!LO:PB:g=original
=81||	=81||	=81||
*M3/4	*M3/4	*
!!LO:TX:B:a:t=Allegretto.
4EE'/	(16b\LL	p
.	16bb\JJ)	.
.	8r	.
4e 4B 4G#'\	(16bb\LL	.
.	16aa\JJ)	.
.	8r	.
4e 4B 4G#'\	(16aa\LL	.
.	16gg#\JJ)	.
.	8r	.
=82	=82	=82
4E\	(16gg#\LL	.
.	16ff#\JJ)	.
.	8r	.
4e 4B 4G#\	(16ff#\LL	.
.	16ee\JJ)	.
.	8r	.
4e 4B 4G#\	(16ee\LL	.
.	16dd#\JJ)	.
.	8r	.
=83	=83	=83
4AA/	(16dd#\LL	.
.	16cc#\JJ)	.
.	8r	.
4e 4c# 4A\	16cc#\LL	.
.	16b#X\JJ	.
.	8r	.
4e 4c# 4A\	(16b#\LL	.
.	16dd#\JJ)	.
.	8r	.
=84	=84	=84
4AA/	(2dd#^\	.
4f# 4c# 4A\	.	.
4f# 4c# 4A\	4cc#\)	.
=85	=85	=85
4BB/	(8b\L	.
.	8cc#\)	.
4d# 4B 4A\	8dd#'\	.
.	8ee'\	.
4d# 4B 4A\	8ff#'\	.
.	8gg#'\J	.
!!LO:LB:g=original
=86	=86	=86
4BB/	(8ff#\L	.
.	8ee\)	.
4e 4B 4G#\	8dd#'\	.
.	8ee'\	.
4e 4B 4G#\	8ff#'\	.
.	8gg#'\J	.
=87	=87	=87
4BB/	(8aa\L	.
.	8gg#\)	.
4d# 4B 4A\	8aa'\	.
.	8bb'\	.
4d# 4B 4A\	8ccc#'\	.
.	8ddd#'\J	.
=88	=88	=88
8E 8EE/	(8eeeL 8gg#^\	.
8r	8ggg#\J	.
8G# 8GG#/	8bb 8ee 8b\)	.
8r	8r	.
8B 8BB\	8bb 8ff# 8dd# 8b\	.
8r	8r	.
=89	=89	=89
4G# 4GG#/	(16b\LL	.
.	16bb\JJ)	.
.	8r	.
4e 4B 4G#\	(16bb\LL	.
.	16aa\JJ)	.
.	8r	.
4e 4B 4G#\	(16aa\LL	.
.	16gg#\JJ)	.
.	8r	.
=90	=90	=90
4GG#/	(16gg#\LL	.
.	16ff#\JJ)	.
.	8r	.
4f# 4d# 4B#X 4G#\	(16ff#\LL	.
.	16ee\JJ)	.
.	8r	.
4f# 4d# 4B# 4G#\	(16ee\LL	.
.	16dd#\JJ)	.
.	8r	.
!!LO:LB:g=original
=91	=91	=91
4C#/	16dd#\LL	.
.	16cc#\JJ	.
.	8r	.
4e 4c# 4G#\	16cc#\LL	.
.	16dd#\JJ	.
.	8r	.
4e 4c# 4G#\	16ee\LL	.
.	16ff#\JJ	.
.	8r	.
=92	=92	=92
4FF#/	(2ff#^\	.
4e 4c# 4F#\	.	.
4e 4c# 4F#\	4a#X/)	.
=93	=93	=93
4BB/	(8b\L	.
.	8dd#\)	.
4d# 4B 4An\	8ff#'\	.
.	8aa'\	.
.	8qaa/	.
4d# 4B 4A\	8gg#\	.
.	8ff#\J	.
=94	=94	=94
*	*8va	*
4BB/	8gg#\L	.
.	8bb\	.
4e 4B 4G#\	8eee'\	.
.	8ggg#'\	.
.	8qggg#/	.
4e 4B 4G#\	(8fff#\	.
.	8eee\J)	.
*	*X8va	*
=95	=95	=95
4BB/	(8ddd#\L	.
.	8ccc#\)	.
*clefG2	*	*
.	8qccc#/	.
4a 4e 4c# 4B/	(8bb\	.
.	8aa\)	.
.	8qaa/	.
8bL 8d# 8B/	(8gg#\	.
8a/J	8ff#\J)	.
!!LO:LB:g=original
=96	=96	=96
4g# 4e/	2ee\	.
*clefF4	*	*
4E\	.	.
4r	(8ee\L	f
.	8eee\J)	.
=97	=97	=97
*ped	*	*
4AA 4AAA/	(8eeeL 8ee\	.
.	8cccn\J)	.
4e 4cn 4A 4E\	(8ccc\L	.
*Xped	*	*
.	8aa\J)	.
4e 4c 4A\	(8aa\L	.
.	8ee\J)	.
=98	=98	=98
4AA/	(8ee\L	>
.	8ccn\J)	.
4e 4cn 4A\	(8cc\L	.
.	8a\J)	.
4e 4c 4A\	(8a\L	.
.	8ee\J)	]]
=99	=99	=99
4EE/	(8ee\L	p
.	8ffn\)	.
4e 4B 4G#\	8ee'\	.
.	8dd#X'\	.
4e 4B 4G#\	8ee'\	.
.	8ff'\J	.
=100	=100	=100
4E\	2ee\	<
4e 4B 4G#\	.	.
4e 4B 4G#\	(8ee\L	.
.	8eee\J)	[[
!!LO:LB:g=original
=101	=101	=101
*ped	*	*
4Cn 4CCn/	(8eeeL 8ee\	f
.	8cccn\J)	.
4e 4cn 4Gn\	(8ccc\L	.
*Xped	*	*
.	8ggn\J)	.
4e 4c 4G\	(8gg\L	.
.	8ee\J)	.
=102	=102	=102
4Cn/	(8ee\L	>
.	8ccn\J)	.
4e 4cn 4Gn\	(8cc/L	.
.	8gn/J)	.
4e 4c 4G\	(8g\L	.
.	8ee\J)	]]
=103	=103	=103
4BB'/	(8ee\L	.
!	!	!LO:HP:b:t=dimin.
.	8ffn\)	>
4dn 4G# 4E'\	8ee'\	.
.	8ddn'\	.
4d 4G# 4E'\	8b'\	.
.	8dd'\J	.
=104	=104	=104
4AA/	(8ccn\L	.
.	8dd#\)	.
4cn 4A 4E'\	8cc'\	.
.	8b'\	.
4c 4A 4E'\	8a'\	.
.	8cc'\J	.
=105	=105	=105
4EE/	(16b\LL	pp
.	16bb\JJ)	.
.	8r	.
4B 4G# 4E\	(16bb\LL	.
.	16aa\JJ)	.
.	8r	.
4B 4G# 4E\	(16aa\LL	.
.	16gg#\JJ)	.
.	8r	.
!!LO:PB:g=original
=106	=106	=106
4EE/	(16gg#\LL	.
.	16ff#\JJ)	.
.	8r	.
4e 4B 4G#\	(16ff#\LL	.
.	16ee\JJ)	.
.	8r	.
4e 4B 4G#\	(16ee\LL	.
.	16dd#\JJ)	.
.	8r	.
=107	=107	=107
4AA/	(16dd#\LL	.
.	16cc#\JJ)	.
.	8r	.
4e 4c# 4A\	(16cc#\LL	.
.	16b#X\JJ)	.
.	8r	.
4e 4c# 4A\	(16b#\LL	.
.	16dd#\JJ)	.
.	8r	.
=108	=108	=108
4AA/	(2dd#^\	.
4f# 4c# 4A\	.	.
4f# 4c# 4A\	4cc#\)	.
=109	=109	=109
4BB/	(8b\L	.
.	8cc#\)	.
4d# 4A 4F#\	8dd#'\	.
.	8ee'\	.
4d# 4A 4F#\	8ff#'\	.
.	8gg#'\J	.
=110	=110	=110
4BB/	(8ff#\L	.
.	8ee\)	.
4e 4B 4G#\	8dd#'\	.
.	8ee'\	.
4e 4B 4G#\	8ff#'\	.
.	8gg#'\J	.
!!LO:LB:g=original
=111	=111	=111
4BB/	(8aa\L	.
.	8gg#\)	.
4d# 4B 4A\	8aa'\	.
.	8bb'\	.
4d# 4B 4A\	8ccc#'\	.
.	8ddd#'\J	.
=112	=112	=112
8E 8EE/	(8eeeL 8gg#\	.
8r	8ggg#\J	.
8G# 8GG#/	8bb 8ee 8b\)	.
8r	8r	.
8B 8BB\	8bb 8ff# 8dd# 8b\	.
8r	8r	.
=113	=113	=113
4G# 4GG#/	(16b\LL	.
.	16bb\JJ)	.
.	8r	.
4e 4B 4G#\	(16bb\LL	.
.	16aa\JJ)	.
.	8r	.
4e 4B 4G#\	(16aa\LL	.
.	16gg#\JJ)	.
.	8r	.
=114	=114	=114
4GG#/	(16gg#\LL	.
.	16ff#\JJ)	.
.	8r	.
4f# 4d# 4B#X 4G#\	(16ff#\LL	.
.	16ee\JJ)	.
.	8r	.
4f# 4d# 4B# 4G#\	(16ee\LL	.
.	16dd#\JJ)	.
.	8r	.
=115	=115	=115
4C#/	16dd#\LL	.
.	16cc#\JJ	.
.	8r	.
4e 4c# 4G#\	16cc#\LL	.
.	16dd#\JJ	.
.	8r	.
4e 4c# 4G#\	16ee\LL	.
.	16ff#\JJ	.
.	8r	.
!!LO:LB:g=original
=116	=116	=116
4FF#/	(2ff#\	.
4e 4c# 4F#\	.	.
4e 4c# 4F#\	4a#X/)	.
=117	=117	=117
4BB/	(8b\L	.
.	8dd#\)	.
4d# 4B 4An\	8ff#'\	.
.	8aa'\	.
.	8qaa/	.
4d# 4B 4A\	(8gg#\	.
.	8ff#\J)	.
=118	=118	=118
4BB/	(8gg#\L	.
.	8bb\)	.
4e 4B 4G#\	8eee'\	.
.	8ggg#'\	.
.	8qggg#/	.
4e 4B 4G#\	8fff#\	.
.	8eee\J	.
=119	=119	=119
4BB/	(8ddd#\L	.
.	8ccc#\)	.
*clefG2	*	*
.	8qccc#/	.
4a 4e 4c# 4B/	(8bb\	.
.	8aa\)	.
.	8qaa/	.
8bL 8d# 8B/	8gg#\	.
8a/J	8ff#\J	.
=120	=120	=120
4g# 4e/	4ee\	.
4r	4r	.
*clefF4	*	*
8.C#L 8.GG# 8.CC#/	8.eeeL 8.gg# 8.ee\	ff
16C#Jk 16GG# 16CC#/	16eeeJk 16gg# 16ee\	.
=121	=121	=121
4C# 4GG# 4CC#'</	4eee 4gg# 4ee'\	.
4D# 4GG# 4DD#'</	4ddd# 4gg# 4dd#'\	.
4E 4C# 4EE'</	4ccc# 4gg# 4cc#'\	.
!!LO:LB:g=original
=122	=122	=122
(4E#X [4C# (4EE#X/	(4bb 4gg# 4cc# ((4b\	.
8F#) 8C#] 8FF#/)	8aa 8ff# 8cc# 8a\)))	.
8r	8r	.
8.G#L 8.GG#/	8.gg#L 8.b#X 8.g#\	.
16G#Jk 16GG#/	16gg#Jk 16b# 16g#\	.
=123	=123	=123
4G# 4GG#'/	4gg# 4b#X 4g#'\	.
4A#X 4AA#X'\	4ggn 4cc# 4gn'\	.
4B#X 4BB#X'\	4ff# 4dd# 4an'\	.
=124	=124	=124
(4B#X (4BB#X\	(4ff# 4dd# ((4g#\	sf >
8c#) 8C#\)	8ee 8cc# 8g#\)))	]
8r	8r	.
.	16qqee/LL	p
.	16qqff#/JJ	.
4r	8ee\L	.
.	8dd#\J	.
*clefG2	*	*
=125	=125	=125
4F#/	(8cc#\L	.
.	8aa\J)	.
4a 4f# 4c#/	(8aa\L	.
.	8cc#\J)	.
4a 4f# 4c#/	4aa\	.
=126	=126	=126
4G#/	(8cc#\L	.
.	8gg#\J)	.
4g# 4e 4c#/	(8gg#\L	.
.	8cc#\J)	.
4g# 4e 4c#/	4ccc#\	.
=127	=127	=127
*^	*	*
4r	(2.A\	(8cc#T\L	.
.	.	8b#X\	.
4e 4c#/	.	8cc#\	.
.	.	8ee\	.
4f# 4c#/	.	8dd#\	.
.	.	8cc#\J)	.
*v	*v	*	*
!!LO:LB:g=original
=128	=128	=128
4g# 4d# 4G#/)	(8b#X\L	.
.	8dd#\	.
4r	8g#\J)	.
.	8r	.
*clefF4	*	*
8.C#L 8.GG# 8.CC#/	8.eeeL 8.gg# 8.ee\	ff
16C#Jk 16GG# 16CC#/	16eeeJk 16gg# 16ee\	.
=129	=129	=129
4C# 4GG# 4CC#'/	4eee 4gg# 4ee'\	.
4D# 4GG# 4DD#'/	4ddd# 4gg# 4dd#'\	.
4E 4C# 4EE'/	4ccc# 4gg# 4cc#'\	.
=130	=130	=130
!LO:TX:t=P:problem:błędne wyświetlanie łuku	!LO:TX:t=P:problem:błędne wyświetlanie łuku	!
(4E#X 4C# ((4EE#X/	(4bb (4gg# 4cc# (4b\	.
8F# 8C# 8FF#/)))	8aa) 8ff#) 8cc# 8a\)	.
8r	8r	.
8.G#L 8.GG#/	8.gg#L 8.b#X 8.g#\	.
16G#Jk 16GG#/	16gg#Jk 16b# 16g#\	.
=131	=131	=131
4G# 4GG#'/	4gg# 4b#X 4g#'\	.
4A#X 4AA#X\	4ggn 4cc# 4gn'\	.
4B#X 4BB#X\	4ff# 4dd# 4an\	.
=132	=132	=132
!	!LO:TX:t=P:problem:błędne wyświetlanie łuku	!
(4B#X (4BB#X\	(4ff# 4dd# ((4g#\	.
8c# 8C#\))	8ee 8cc# 8g#\)))	.
8r	8r	.
.	16qqee/LL	p
.	16qqff#/JJ	.
4r	8ee\L	.
.	8dd#\J	.
!!LO:PB:g=original
=133	=133	=133
4F#\	(8cc#\L	.
.	8aa\J)	.
4a 4f# 4c#\	8aa\L	.
.	8cc#\J	.
4a 4f# 4c#\	4aa\	.
=134	=134	=134
4G#\	(8cc#\L	.
.	8gg#\J)	.
4g# 4e 4c#\	(8gg#\L	.
.	8cc#\J)	.
4g# 4e 4c#\	4ccc#\	.
=135	=135	=135
2.f##X 2.c# 2.A\	8cc#T\L	.
.	(8b#X\	.
.	8cc#\	.
.	8ee\	.
.	8dd#\	.
.	8cc#\J)	.
=136	=136	=136
4d# 4B#X 4G#\	(8b#X\L	.
.	8dd#\J)	.
4r	4g#/	.
4r	4gg#^^\	.
=137	=137	=137
2.f##X 2.c# 2.A\	8cc#T\L	.
.	(8b#X\	.
.	8cc#\	.
.	8ee\	.
.	8dd#\	.
.	8cc#\J)	.
!!LO:LB:g=original
=138	=138	=138
!LO:N:vis=2	!	!
4d# 4B#X 4G#\	(8b#X\L	.
.	8dd#\J)	.
4r	4g#/	.
4r	4g#/	.
=139	=139	=139
2.F##X 2.AA/	8c#T/L	.
.	8B#X/	.
.	8c#/	.
.	8e/	.
.	8d#/	.
.	8c#/J	.
=140	=140	=140
(2.G# 2.GG#/	8B#X/	.
.	8gg#\L	.
.	8gg#\	.
.	[8b#X\J	.
.	4gg# 4b#\]	.
=141	=141	=141
2.c# 2.An\	(8cc#\L	.
.	8ggn\)	.
.	(8gg\	.
.	[8cc#\J)	.
.	4gg 4cc#^^\]	.
=142	=142	=142
2.e 2.A#X\)	(8cc#\L	.
.	8ff#\)	.
.	8ff#\	.
.	[8cc#\J	.
.	4ff# 4cc#^^\]	.
!!LO:LB:g=original
=143	=143	=143
2d# 2B\	(8b\L	.
.	8ff#\)	.
.	(8ff#\	.
.	8b\J)	.
4r	4bb^^\	.
*clefG2	*	*
=144	=144	=144
4B/	(8b\L	pp
.	8ff#\)	.
4f#/	(8ff#\	.
.	8b\J)	.
4b\	4bb^^\	.
=145	=145	=145
4B/	(8b\L	.
.	8ff#\)	.
4f#/	(8ff#\	.
.	8b\J)	.
4b\	4bb^^\	.
=146	=146	=146
4B/	(8b\L	<
.	8bb\J)	.
4b\	(8bb\L	.
.	8b\J)	.
4B/	(8b\L	.
.	8bb\J)	.
=147	=147	=147
4b\	(8bb\L	.
.	8b\J)	.
4B/	(8b\L	.
.	8bb\J)	.
4r	(8bb\L	.
.	8b\J)	[[
!!LO:LB:g=original
*clefF4	*	*
=148	=148	=148
4E 4EE/	(16b\LL	ff
.	16bb\JJ)	.
.	8r	.
4e 4B 4G#\	(16bb\LL	.
.	16aa\JJ)	.
.	8r	.
4e 4B 4G#\	(16aa\LL	.
.	16gg#\JJ)	.
.	8r	.
=149	=149	=149
4G# 4GG#/	(16gg#\LL	.
.	16ff#\JJ)	.
.	8r	.
4e 4B 4G#\	(16ff#\LL	.
.	16ee\JJ)	.
.	8r	.
4e 4B 4G#\	(16ee\LL	.
.	16dd#\JJ)	.
.	8r	.
=150	=150	=150
4A 4AA\	(16dd#\LL	.
.	16cc#\JJ)	.
.	8r	.
4e 4c# 4A\	(16cc#\LL	.
.	16b#X\JJ)	.
.	8r	.
4e 4c# 4A\	(16b#\LL	.
.	16dd#\JJ)	.
.	8r	.
=151	=151	=151
*^	*	*
!	!	!	!LO:DY:b=2
4r	2.F#\	2dd#^\	sf
4e 4c# 4A/	.	.	.
4e 4c# 4A/	.	4cc#\	.
*v	*v	*	*
!!LO:LB:g=original
=152	=152	=152
8BB\L	(8b\L	.
8d#J 8A 8F#\	8cc#\)	.
4d# 4A 4F#\	8dd#'\	.
.	8ee'\	.
4d# 4A 4F#\	8ff#'\	.
.	8gg#'\J	.
=153	=153	=153
4BB/	(8ff#\L	.
.	8ee\)	.
4e 4B 4G#\	8dd#'\	.
.	8ee'\	.
4e 4B 4G#\	8ff#'\	.
.	8gg#'\J	.
=154	=154	=154
4BB/	(8aa\L	.
.	8gg#\)	.
4c# 4A 4F#\	8ff#\	.
.	8b\	.
4f# 4B 4A\	8cc#\	.
.	8dd#\J	.
=155	=155	=155
8E 8EE/	8ee\L	.
8r	8gg#\J	.
8G# 8GG#/	8b\	.
8r	8r	.
4B 4BB^\	4bb 4ff# 4dd# 4b^\	.
=156	=156	=156
4G# 4GG#/	(16b\LL	.
.	16bb\JJ)	.
.	8r	.
4e 4B 4G#\	(16bb\LL	.
.	16aa\JJ)	.
.	8r	.
4e 4B 4G#\	(16aa\LL	.
.	16gg#\JJ)	.
.	8r	.
!!LO:PB:g=original
=157	=157	=157
4E 4EE/	(16gg#\LL	.
.	16ff#\JJ)	.
.	8r	.
4e 4B 4G#\	(16ff#\LL	.
.	16ee\JJ)	.
.	8r	.
4e 4B 4G#\	(16ee\LL	.
.	16dd#\JJ)	.
.	8r	.
=158	=158	=158
4A 4AA\	16dd#\LL	.
.	16cc#\JJ	.
.	8r	.
4e 4c# 4A\	16cc#\LL	.
.	16b#X\JJ	.
.	8r	.
4e 4c# 4A\	16b#\LL	.
.	16dd#\JJ	.
.	8r	.
=159	=159	=159
4F# 4FF#/	2dd#\	.
4f# 4c# 4A\	.	.
4f# 4c# 4A\	8cc#\	.
.	8r	.
=160	=160	=160
8BB\L	8b\L	.
8d#J 8A 8F#\	8cc#\	.
4d# 4A 4F#\	8dd#\	.
.	8ee\	.
4d# 4A 4F#\	8ff#\	.
.	8gg#\J	.
=161	=161	=161
4BB/	8ff#\L	.
.	8ee\	.
4e 4B 4G#\	8dd#\	.
.	8ee\	.
4e 4B 4G#\	8ff#\	.
.	8gg#\J	.
!!LO:LB:g=original
=162	=162	=162
8AL 8F#\	8aaL 8cc#\	.
8BJ 8G#\	8gg#J 8b\	.
8c# 8A\	8ff# 8a\	.
8r	8r	.
8B 8F# 8D# 8BB\	8bb 8ff# 8dd# 8b\	.
8r	8r	.
=163	=163	=163
8E 8BB 8GG# 8EE/	8eee 8bb 8gg# 8ee\	.
8r	8r	.
4r	4r	.
4r	4r	.
=164||	=164||	=164||
4E 4BB 4EE/	4ff# 4ddn 4b 4g#^^\	ff
4E 4BB 4EE/	4ee 4dd 4b 4g#^^\	.
4r	4r	.
=165	=165	=165
!LO:TX:t=P:problem:spiccato u dołu	!	!
4E 4BB 4EE^^</	4aa 4ff# 4ddn 4b^^\	.
!LO:TX:t=P:problem:spiccato u dołu	!	!
4E 4BB 4EE^^</	4gg# 4ee 4dd 4b^^\	.
4r	4r	.
=166	=166	=166
!LO:TX:t=P:problem:spiccato u dołu	!	!
4E 4BB 4EE^^</	4ccc# 4gg# 4ee^^\	.
!LO:TX:t=P:problem:spiccato u dołu	!	!
4E 4BB 4EE^^</	4bb 4gg# 4ddn^^\	.
!LO:TX:t=P:problem:spiccato u dołu	!	!
4E 4BB 4EE^^</	4eee 4gg# 4ee 4dd^^\	.
=167	=167	=167
!LO:N:vis=1	!	!
2.r;	2e^;/	.
.	4r	.
*kcancel	*kcancel	*
!!LO:LB:g=original
=168||	=168||	=168||
*k[f#c#g#]	*k[f#c#g#]	*
(4c#\	(4ee 4e/	p <
4d 4B\	4ff# 4f#\	.
4B 4E\	4gg# 4g#\	.
=169	=169	=169
.	8qbb/	.
4A 4C#\	4aa 4a\	.
4B 4E\	4gg# 4g#\	.
4c# 4A\	4aa 4a\	[[
=170	=170	=170
4D\	4aa#X 4a#X^\	sf
4d 4B 4F#\	4bb 4b\	.
4d 4B 4F#\)	4ff#\	.
=171	=171	=171
4BB/	2bb 2b\	.
4d 4B 4F#\	.	.
4d 4B\	4aan\)	.
=172	=172	=172
4.e 4.B 4.G# 4.E\	(4gg#^ 4ee\	.
.	8eee\)	.
8r	8r	.
[4d [<4A [4F# [4E\	(4ff# 4dd\	.
=173	=173	=173
8d] 8A] 8F#] 8E\]	8ddd\)	.
8r	8r	.
4.c# 4.G# 4.E\	(4ee^ 4cc#\	.
.	8ccc#\)	.
8r	8r	.
!!LO:LB:g=original
=174	=174	=174
(4f# 4A\	(4bb#X 4dd#X 4b#X\	.
8e 8A\)	8ccc# 8ee 8cc#\)	.
8r	8r	.
4e 4c#\	4aa\	.
=175	=175	=175
*^	*	*
(4e 4c#/	2E\	2ee\	.
4d 4B/)	.	.	.
!	!	!	!LO:HP:b:t=dolce cre-scen-do:ext=ud:ext2=ud
4B\ 4E\	4ryy	8ee'\L	<
.	.	8ee'\J	.
*v	*v	*	*
=176	=176	=176
4e 4c#\	(4ee\	.
4d#X 4B#X\	4ff# 4f#\	.
4dn 4Bn\	4gg# 4g#\	.
=177	=177	=177
.	8qbb/	.
4c# 4A\	4aa 4a\	.
4d 4B 4E#X\	4gg# 4g#\	.
4c# 4A 4F#\	4aa 4a\	.
=178	=178	=178
4E 4C#\	4aa#X 4a#X\	.
4F# 4D\	4bb 4b\	.
4Gn 4E 4AA#X\	4ccc# 4cc#\)	[[
!!LO:LB:g=original
=179	=179	=179
*^	*	*
4r	2.BB\	(2eee 2ee\	ff >
4F# 4D/	.	.	.
4B 4F#/	.	8dddL 8dd\	.
.	.	8bb\J)	]]
*v	*v	*	*
=180	=180	=180
2c# 2A 2E\	(4aa^\	p
!	!LO:TX:i:b:t=scherz.	!
.	8aaa\)	.
.	8r	.
[4d#X [4cn [4A [4E\	(4ff#^\	.
=181	=181	=181
4d#] 4c] 4A] 4E\]	8fff#\)	.
.	8r	.
2dn 2B 2G# 2E\	(4ee\	.
.	8eee\)	.
.	8r	.
=182	=182	=182
4c# 4A\	4aa 4a\	.
4E'\	(8gg#\L	.
.	8aa\	.
4C#'/	8ee\	.
.	8cc#\J	.
=183	=183	=183
4AA'/	4a/)	.
.	8qbb/	.
4r	(8aa\L	.
.	8gg#\	.
4r	8aa\	.
.	8bb\J)	.
!!LO:PB:g=original
=184!|:	=184!|:	=184!|:
*>B	*>B	*
8AL 8F#\	(4ccc#\	mf
8c#\	.	.
8G# 8F#\	4ddd\	.
8B\	.	.
8A 8F#\	4ccc#\	.
8c#\J	.	.
=185	=185	=185
8BL 8F#\	4bb\	.
8d\	.	.
8A 8F#\	4aa\	.
8c#\	.	.
8B 8F#\	4gg#\	<
8c#\J	.	.
=186	=186	=186
8AL 8F#\	4ff#\	.
8c#\	.	.
8A 8F#\	4aa\	.
8c#\	.	.
8A 8F#\	4ccc#\	[[
8c#\J	.	.
=187	=187	=187
8AL 8F#\	2fff# 2ff#\	>
8c#\	.	.
8A 8F#\	.	.
8c#\	.	.
8A 8F#\	4eee\)	]]
8c#\J	.	.
=188	=188	=188
!	!LO:TX:i:b:t=scherz.	!
8BB\L	(8eee^^\L	.
8B\	8ddd\	.
8F#\	8fff#\J)	.
8B\	8r	.
8E\	4ccc#'\	.
8B\J	.	.
=189	=189	=189
8D\L	(8ccc#^^\L	.
8B\	8bb\	.
8F#\	8ddd\J)	.
8B\	8r	.
8BB\	4aa'\	.
8B\J	.	.
!!LO:LB:g=original
=190	=190	=190
8C#\L	(8gg#\L	.
8c#\	8ccc#\J)	.
8E#X\	4gg#\	.
8c#\	.	.
8G#\	(8ee#X\L	.
8c#\J	8gg#\J	.
=191	=191	=191
(8C#\L	2cc#^\)	.
8c#\	.	.
8B#X\	.	.
8c#\	.	.
8Bn\	4ccc# 4cc#\	.
8c#\J)	.	.
=192	=192	=192
8c#L 8A\	(4ccc# 4cc#\	.
8f#\	.	.
.	8qeee/	.
8c# 8A\	4ddd 4dd\	.
8f#\	.	.
8c# 8A\	4ccc# 4cc#\	.
8f#\J	.	.
=193	=193	=193
8BL 8G#\	4bb 4b\	.
8f#\	.	.
8B 8G#\	4aa 4a\	.
8f#\	.	.
8B 8G#\	4gg# 4g#\	.
8f#\J	.	.
=194	=194	=194
8c#L 8A 8F#\	4aa 4a\	<
8f#\	.	.
8c# 8A 8F#\	4ccc# 4cc#\	.
8f#\	.	.
8c# 8A 8F#\	4fff# 4ff#\	[[
8f#\J	.	.
=195	=195	=195
*^	*	*
!	!LO:N:vis=2.	!	!
2.C#/	8C#\L	2aaa 2aa\	>
.	8e\	.	.
.	8A\	.	.
.	8e\	.	]
.	8A\	4ggg#\)	.
.	8e\J	.	.
*v	*v	*	*
!!LO:LB:g=original
=196	=196	=196
8AL 8D\	(8ggg#^^\L	.
8d\	8fff#\J	.
8A 8F#\	4.aaa\)	.
8d\	.	.
8A 8D\	.	.
8d\J	8eee\	.
=197	=197	=197
8F#L 8BB\	(8eee\L	.
8B\	8ddd\J	.
8F# 8D\	4.aaa\)	.
8B\	.	.
8F# 8BB\	.	.
8B\J	8ccc#\	.
=198	=198	=198
8BL 8G# 8E\	(8bb\L	.
8e\	8eee\	.
8B 8G#\	8bb\	.
8e\	8aa\	.
8c# 8A\	8gg#\	.
8e\J	8ff#\J	.
=199	=199	=199
8dL 8B 8E\	4ee\)	.
8e\	.	.
8c# 8A\	(8dd#X\L	.
8e\	8ee\	.
.	8qgg#/	.
8B 8G#\	8.ff#\	.
8e\J	.	.
.	16ee\Jk)	.
=200	=200	=200
4e 4c#\	(4ee\	f
4d#X 4B#X\	4ff# 4f#\	.
4dn 4Bn\	4gg# 4g#\	.
!!LO:LB:g=original
=201	=201	=201
.	8qbb/	.
8c#L 8A\	4aa\	.
8e\	.	.
8d 8B 8A\	4gg#\	.
8e\	.	.
8c# 8A\	4aa\	.
8e\J	.	.
=202	=202	=202
8D\L	4aa#X\	.
8d\	.	.
8B 8F#\	4bb\	.
8d\	.	.
8B 8F#\	4ff#\	.
8d\J	.	.
=203	=203	=203
8BB\L	2bb\	.
8d\	.	.
8B 8F#\	.	.
8d\	.	.
8B 8F#\	4aan\)	.
8d\J	.	.
=204	=204	=204
4.e 4.B 4.G# 4.E\	(4gg# 4ee^^\	.
.	8eee\)	.
8r	8r	.
[4d [4A [>4F# [4E\	(4ff# 4dd^^\	.
=205	=205	=205
8d] 8A] 8F#] 8E\]	8ddd\)	.
8r	8r	.
4.c# 4.G# 4.E\	(4ee 4cc#^^\	.
.	8ccc#\)	.
8r	8r	.
=206	=206	=206
8A\L	(4bb#X 4dd 4b#X\	.
8f#\	.	.
8A\	4ccc# 4ee 4cc#\	.
8e\	.	.
8A\	4aa 4cc# 4a\	.
8e\J	.	.
!!LO:LB:g=original
=207	=207	=207
(8c#L 8E\	2ee\)	.
8e\	.	.
8d 8B\	.	.
8e\	.	.
8B 8G# 8E\	(8ee\L	.
8e\J)	8ee\J	.
=208	=208	=208
!	!	!LO:HP:b:t=molto cre-scen-do:ext=ud:ext2=ud
8c#\L	4ee\	<
8e\	.	.
8d#X 8B#X\	4ff# 4f#\	.
8e\	.	.
8dn 8Bn\	4gg# 4g#\	.
8e\J	.	.
=209	=209	=209
.	8qbb/	.
8c#L 8A\	4aa 4a\	.
8e\	.	.
8B 8E#X\	4gg# 4g#\	.
8d\	.	.
8A 8F#\	4aa 4a\	.
8c#\J	.	.
=210	=210	=210
8EL 8C#\	4aa#X 4a#X\	.
8Gn\	.	.
8F# 8D\	4bb 4b\	.
8B\	.	.
8E 8AA#X\	4ccc# 4cc#\	[[
8G\J	.	.
=211	=211	=211
8D 8BB\L	2eee 2ee\	sf
8B\	.	.
8F#\	.	.
8B\	.	.
8BB\	8dddL 8dd\)	.
8B\J	8bb\J	.
!!LO:PB:g=original
=212	=212	=212
!	!LO:TX:i:b:t=scherz.	!
4.e 4.c# 4.E\	(4aa^^\	p
.	8aaa\)	.
8r	8r	.
[4d#X [4cn [4A [4E\	(4ff#^^\	.
=213	=213	=213
8d#] 8c] 8A] 8E\]	8fff#\)	.
8r	8r	.
4.dn 4.B 4.G# 4.E\	(4ee\	.
.	8eee\)	.
8r	8r	.
=214	=214	=214
*>B1	*>B1	*
4A 4AA\	8aa 8cc# 8a\	.
.	8r	.
4A 4C#\	8gg#\L	.
.	8aa\	.
4A 4E\	8ee\	.
.	8cc#\J	.
=215	=215	=215
4A 4AA\	4a/	.
.	8qbb/	.
4r	8aa\L	.
.	8gg#\	.
4r	8aa\	.
.	8bb\J	.
!!LO:LB:g=original
=216:|!	=216:|!	=216:|!
*>B2	*>B2	*
4AA/	8aa 8cc# 8a\	.
.	8r	.
4e 4c# 4A\	8gg#\L	.
.	8aa\	.
4e 4c# 4A\	8ee\	.
.	8cc#\J	.
=217	=217	=217
4AA/	8a/	.
.	8r	.
4e 4c# 4A\	8gg#\L	.
.	8aa\	.
4e 4c# 4A\	8ee\	.
.	8cc#\J	.
=218	=218	=218
*>C	*>C	*
4AA/	8a/	.
.	8r	.
4e 4c# 4A\	(8gg#\L	.
.	8aa\	.
4e 4c# 4A\	8ee\	.
.	8cc#\J	.
=219	=219	=219
4AA/	8a/)	.
.	8r	.
4e 4c# 4A\	4aa 4ee 4cc# 4a'\	.
4e 4c# 4A\	4aa 4ee 4cc# 4a'\	.
=220	=220	=220
4GGn/	4bb 4ffn 4dd 4b^^\	.
4fn 4d 4Gn\	(8aa#X\L	.
.	8bb\	.
4f 4d 4G\	8ggn\	.
.	8dd\J)	.
=221	=221	=221
4GGn/	8b'\	.
.	8r	.
4fn 4d 4Gn\	(8aa#X\L	.
.	8bb\	.
4f 4d 4G\	8ggn\	.
.	8dd\J)	.
!!LO:LB:g=original
=222	=222	=222
4GGn/	8b\	.
.	8r	.
4fn 4d 4Gn\	(8aa#X\L	.
.	8bb\	.
4f 4d 4G\	8ggn\	.
.	8dd\J)	.
=223	=223	=223
4GGn/	4b\	.
4fn 4d 4Gn\	4bb' 4ggn 4ddn 4b\	.
4f 4d 4G\	4bb' 4gg 4dd 4b\	.
=224	=224	=224
4Cn/	4cccn^^ 4ggn 4ee 4ccn\	.
4e 4cn 4Gn\	(8bb\L	.
.	8ccc\	.
4e 4c 4G\	8gg\	.
.	8ee\J	.
=225	=225	=225
4Cn/	4ccn\)	.
4e 4cn 4G#\	(8bb\L	.
.	8cccn\	.
4e 4c 4G#\	8ggn\	.
.	8ee\J	.
=226	=226	=226
4Cn/	4ccn\)	.
4e 4cn 4G#\	(8bb\L	.
.	8cccn\	.
4e 4c 4G#\	8ggn\	.
.	8ee\J	.
=227	=227	=227
4Cn/	4ccn\)	.
4e 4cn 4G#\	4eee 4gg# 4een\	.
4e 4c 4G#\	4eee 4gg# 4ee\	.
!!LO:LB:g=original
=228	=228	=228
*tremolo	*	*
8F#L 8D#X 8BB\	4ddd#X 4aa 4ff#\	f
8A\	.	.
8F# 8D# 8BB\	(8fff#\L	.
8A\	8eee\	.
8F# 8D# 8BB\	8ddd#\	.
8A\J	8ccc#\J	.
=229	=229	=229
8F#L 8D#X 8BB\	4bb\)	.
8A\	.	.
8F# 8D# 8BB\	(8ddd#X\L	.
8A\	8ccc#\	.
8F# 8D# 8BB\	8bb\	.
8A\J	8aa\J	.
=230	=230	=230
8G#L 8E 8BB\	4gg#\)	.
8B\	.	.
8G# 8E 8BB\	(8bb\L	.
8B\	8aa\	.
8G# 8E 8BB\	8gg#\	.
8B\J	8ff#\J	.
=231	=231	=231
8G#L 8E 8BB\	8ee\L	.
8B\	8ff#\	.
8G# 8E 8BB\	8aa\	.
8B\	8gg#\	.
8G# 8E 8BB\	8ff#\	.
8B\J	8ee\J)	.
=232	=232	=232
!	!	!LO:HP:b:t=di-mi-nu-en-do:ext2=ud
8F#L 8D#X 8BB\	(8dd#X\L	>
8B\	8ee\	.
8F# 8D# 8BB\	8ff#\	.
8B\	8ee\	.
8F# 8D# 8BB\	8dd#\	.
8B\J	8cc#\J	.
*Xtremolo	*	*
=233	=233	=233
8D#XL 8BB\	8b\L	.
8A\	8cc#\	.
8D# 8BB\	8dd#X\	.
8A\	8cc#\	.
8D# 8BB\	8b\	.
8A\J	8a\J	.
!!LO:LB:g=original
=234	=234	=234
8EL 8BB\	8g#/L	.
8G#\	8a/	.
8E 8BB\	8b/	.
8G#\	8a/	.
8E 8BB\	8g#/	.
8G#\J	8f#/J	.
=235	=235	=235
8EL 8BB\	8e/L	.
8G#\	8f#/	.
8E 8BB\	8a/	.
8G#\	8g#/	.
8E 8BB\	8f#/	.
8G#\J	8e/J)	]]
=236	=236	=236
4B 4F# 4BB\	4b 4d#X/	.
4r	(8b\L	pp
.	8ff#\)	.
4r	(8ff#\	.
.	8b\J)	.
*clefG2	*	*
=237	=237	=237
4a 4f# 4d#X 4B/	4bb^^\	.
4r	(8b\L	.
.	8ff#\)	.
4r	(8ff#\	.
.	8b\J)	.
*clefF4	*	*
=238	=238	=238
4B 4BB\	4bb^^\	.
4r	(8bb\L	.
.	8b\J)	.
4r	(8b\L	.
.	8bb\J)	.
=239	=239	=239
!LO:N:vis=1	!	!
2.r	(8bb\L	.
.	8b\J)	.
.	(8b\L	.
.	8bb\J)	.
.	(8bb\L	.
.	8b\J)	.
!!LO:PB:g=original
=240||	=240||	=240||
*k[f#c#g#d#]	*k[f#c#g#d#]	*
4E 4EE/	(16b\LL	p
.	16bb\JJ)	.
.	8r	.
4e 4B 4G#\	(16bb\LL	.
.	16aa\JJ)	.
.	8r	.
4e 4B 4G#\	(16aa\LL	.
.	16gg#\JJ)	.
.	8r	.
=241	=241	=241
4G# 4GG#/	(16gg#\LL	.
.	16ff#\JJ)	.
.	8r	.
4e 4B 4G#\	(16ff#\LL	.
.	16ee\JJ)	.
.	8r	.
4e 4B 4G#\	(16ee\LL	.
.	16dd#\JJ)	.
.	8r	.
=242	=242	=242
4AA/	(16dd#\LL	.
.	16cc#\JJ)	.
.	8r	.
4e 4c# 4A\	16cc#\LL	.
.	16b#X\JJ	.
.	8r	.
4e 4c# 4A\	(16b#\LL	.
.	16dd#\JJ)	.
.	8r	.
=243	=243	=243
4FF#/	(2dd#^\	.
4f# 4c# 4A\	.	.
4f# 4c# 4A\	4cc#\)	.
=244	=244	=244
4BB/	(8b\L	.
.	8cc#\)	.
4d# 4B 4A\	8dd#'\	.
.	8ee'\	.
4d# 4B 4A\	8ff#'\	.
.	8gg#'\J	.
!!LO:LB:g=original
=245	=245	=245
4BB/	(8ff#\L	.
.	8ee\)	.
4e 4B 4G#\	8dd#'\	.
.	8ee'\	.
4e 4B 4G#\	8ff#'\	.
.	8gg#'\J	.
=246	=246	=246
4BB/	8aa\L	.
.	8gg#\	.
4d# 4B 4A\	8ff#\	.
.	8b\	.
4d# 4B 4A\	8cc#\	.
.	8dd#\J	.
=247	=247	=247
8E 8EE/	8ee\L	.
8r	8gg#\J	.
8G# 8GG#/	8b\	.
8r	8r	.
4B 4BB\	4bb 4ff# 4dd# 4b\	.
=248	=248	=248
4GG#/	(16b\LL	.
.	16bb\JJ)	.
.	8r	.
4e 4B 4G#\	(16bb\LL	.
.	16aa\JJ)	.
.	8r	.
4e 4B 4G#\	(16aa\LL	.
.	16gg#\JJ)	.
.	8r	.
=249	=249	=249
4EE/	(16gg#\LL	.
.	16ff#\JJ)	.
.	8r	.
4e 4B 4G#\	(16ff#\LL	.
.	16ee\JJ)	.
.	8r	.
4e 4B 4G#\	(16ee\LL	.
.	16dd#\JJ)	.
.	8r	.
!!LO:LB:g=original
=250	=250	=250
4AA/	16dd#\LL	.
.	16cc#\JJ	.
.	8r	.
4e 4c# 4A\	16cc#\LL	.
.	16b#X\JJ	.
.	8r	.
4e 4c# 4A\	16b#\LL	.
.	16dd#\JJ	.
.	8r	.
=251	=251	=251
4FF#/	2dd#\	.
4e 4c# 4A\	.	.
4e 4c# 4A\	4cc#\	.
=252	=252	=252
4BB/	8b\L	.
.	8cc#\	.
4d# 4B 4A\	8dd#\	.
.	8ee\	.
4d# 4B 4A\	8ff#\	.
.	8gg#\J	.
=253	=253	=253
4BB/	8ff#\L	.
.	8ee\	.
4e 4B 4G#\	8dd#\	.
.	8ee\	.
4e 4B 4G#\	8ff#\	.
.	8gg#\J	.
=254	=254	=254
4c# 4A 4F#\	8aa\L	.
.	8gg#\	.
4r	8ff#\	.
.	8ee\	.
4r	8dd#\	.
.	8cc#\J	.
=255	=255	=255
4B 4A 4D# 4BB\	8b\L	.
.	8ccc#\	.
4r	8bb\	.
.	8aa\	.
4r	8gg#\	.
.	8ff#\J	.
!!LO:LB:g=original
=256	=256	=256
!	!LO:TX:i:a:t=più lento	!
4E 4EE/	4ee\	.
4e 4B 4G# 4E\	4r	.
4e 4B 4G# 4E\	(8gg#L 8ee\	.
.	8bb\J)	.
=257	=257	=257
4E 4EE/	4eee 4gg# 4ee^^\	.
4e 4B 4G# 4E\	4r	.
4e 4B 4G# 4E\	(8gg#L 8ee\	.
.	8bb\J)	.
=258	=258	=258
4E 4EE/	4eee 4gg# 4ee^^\	.
4e 4B 4G# 4E\	4r	.
4e 4B 4G# 4E\	(8gg#L 8ee\	.
.	8bb\J)	.
=259	=259	=259
4E 4EE/	4eee 4gg# 4ee'\	.
4e 4B 4G# 4E\	4ddd# 4gg# 4ee'\	.
4e 4B 4G# 4E\	4ccc# 4gg# 4ee'\	.
=260	=260	=260
4BB/	4ddd# 4bb 4ff#^^\	.
4d# 4B 4A 4F#\	4r	.
4d# 4B 4A 4F#\	(8bbL 8aa 8ff#\	.
.	8ccc#\J)	.
=261	=261	=261
4BB/	4ddd# 4aa 4ff#^^\	.
4d# 4B 4A 4F#\	4r	.
4d# 4B 4A 4F#\	(8bbL 8aa 8ff#\	.
.	8ccc#\J)	.
=262	=262	=262
4BB/	4ddd# 4aa 4ff#^^\	.
4d# 4B 4A 4F#\	4r	.
4d# 4B 4A 4F#\	(8bbL 8aa 8ff#\	.
.	8ccc#\J)	.
!!LO:LB:g=original
=263	=263	=263
4BB/	4ddd# 4aa 4ff#'\	.
4c# 4A 4F#\	4eee 4ccc# 4aa 4ee'\	.
4B 4A 4F#\	4fff# 4ddd# 4bb 4ff#'\	.
=264	=264	=264
4EE/	4ggg# 4eee 4bb 4gg#^^\	.
4e 4B 4G# 4E\	4r	.
4e 4B 4G# 4E\	(8gg#L 8ee\	.
.	8bb\J)	.
=265	=265	=265
4E 4EE/	4eee 4gg# 4ee^^\	.
4e 4B 4G# 4E\	4r	.
4e 4B 4G# 4E\	(8gg#L 8ee\	.
.	8bb\J)	.
=266	=266	=266
4E 4EE/	4eee 4gg# 4ee^^\	.
4e 4B 4G# 4E\	4r	.
4e 4B 4G# 4E\	(8gg#L 8ee\	.
.	8bb\J)	.
=267	=267	=267
4E 4EE/	4eee 4gg# 4ee'\	.
4e 4B 4G# 4E\	4ddd# 4gg# 4ee'\	.
4e 4B 4G# 4E\	4ccc# 4gg# 4ee'\	.
=268	=268	=268
4BB/	4ddd# 4bb 4ff#^^\	.
4d# 4B 4A 4F#\	4r	.
4d# 4B 4A 4F#\	(8bbL 8aa 8ff#\	.
.	8ccc#\J)	.
=269	=269	=269
4BB/	4ddd# 4aa 4ff#^^\	.
4d# 4B 4A 4F#\	4r	.
4d# 4B 4A 4F#\	(8bbL 8aa 8ff#\	.
.	8ccc#\J)	.
!!LO:PB:g=original
=270	=270	=270
4BB/	4ddd# 4aa 4ff#^^\	.
4d# 4B 4A 4F#\	4r	.
4d# 4B 4A 4F#\	(8bbL 8aa 8ff#\	.
.	8ccc#\J)	.
=271	=271	=271
4BB/	4ddd# 4aa 4ff#\	.
4c# 4A 4F#\	4eee 4ccc# 4aa 4ee\	.
4B 4A 4F#\	4fff# 4ddd# 4bb 4ff#\	.
=272	=272	=272
*	*8va	*
!	!LO:TX:B:a:t=Più mosso.	!
[2.E [2.EE/	4ggg# 4bb 4gg#\	sf >
.	4gggn 4aa#X 4ggn\	.
.	4fff# 4aan 4ff#\	.
=273	=273	=273
2.E_ 2.EE/_	4fffn 4gg# 4ffn\	.
.	4eee 4ggn 4ee/	.
*	*X8va	*
.	4ddd# 4ff#X 4dd#\	.
=274	=274	=274
2.E_ 2.EE/_	4dddn 4ffn 4ddn\	.
.	4ccc# 4ee 4cc#\	.
.	4cccn 4dd#X 4ccn\	.
=275	=275	=275
2.E] 2.EE/]	4bb 4ddn 4b\	.
.	4aa#X 4cc# 4a#X\	]
.	4aan 4ccn 4an\	.
!!LO:LB:g=original
=276	=276	=276
4EE/	(8gg#\L	.
.	8b\	.
4e 4B 4G#\	8ee\	.
.	8gg#\J)	.
4e 4B 4G#\	[4bb^^\	.
=277	=277	=277
4AA/	(8bb\L]	.
.	8aa\	.
4f# 4c# 4A\	8ff#\	.
.	8cc#\J)	.
4f# 4c# 4A\	[4a^>/	.
=278	=278	=278
4BB/	(8a\L]	.
.	8g#\	.
4e 4B 4G#\	8b\	.
.	8ee\J)	.
4e 4B 4G#\	[4gg#^^\	.
=279	=279	=279
4BB/	8gg#\L]	.
.	8ff#\	.
4d# 4B 4A\	8dd#\	.
.	8b\J	.
4B 4BB\	4bb\	.
=280	=280	=280
*	*8va	*
[2.E [2.EE/	4bbb 4dddn 4bb\	ff
.	4aaa#X 4ccc# 4aa#X\	.
.	4aaan 4cccn 4aan\	.
=281	=281	=281
2.E_ 2.EE/_	4ggg# 4bb 4gg#\	.
.	4gggn 4aa#X 4ggn\	.
.	4fff# 4aan 4ff#\	.
*	*X8va	*
!!LO:LB:g=original
=282	=282	=282
2.E_ 2.EE/_	4eee 4gg#X 4ee\	.
.	4ddd# 4ggn 4dd#\	.
.	4dddn 4ff# 4ddn\	.
=283	=283	=283
2.E] 2.EE/]	4ccc# 4ffn 4cc#\	.
.	4cccn 4ee 4ccn\	.
.	8bbL 8dd# 8b\	.
.	8aa\J	.
=284	=284	=284
4E 4EE/	(8gg#\L	.
.	8b\	.
4e 4B 4G#\	8ee\	.
.	8gg#\J)	.
4e 4B 4G#\	[4bb 4b^^\	.
=285	=285	=285
4AA/	8bb\L]	.
.	8aa\	.
4f# 4c# 4A\	8ff#\	.
.	8cc#\J	.
4f# 4c# 4A\	[4a^^/	.
=286	=286	=286
4BB 4BBB/	8a\L]	.
.	8g#\	.
4e 4B 4G#\	8b\	.
.	8ee\J	.
4e 4B 4G#\	[4gg# 4g#^^\	.
=287	=287	=287
4BB/	(8gg#\L]	.
.	8ff#\	.
4f# 4B 4A\	8dd#\	.
.	8b\J)	.
4d# 4B 4A\	8bb\	.
.	8r	.
!!LO:LB:g=original
=288	=288	=288
*^	*	*
(4A#X 4F##X/	2E\	(4.ccc# 4.ee^^\	.
8B 8G#/)	.	.	.
8r	.	8bb\L	.
!LO:TX:t=P:problem:krzyżyk poprzedzony kasownikiem	!	!	!
4B 4F#X'\ 4D# 4BB\	4ryy	8aa#X\	.
.	.	8bb\J)	.
=289	=289	=289	=289
(4A#X 4F##X/	2E\	(4.eee 4.ee^^\	.
8B 8G#/)	.	.	.
8r	.	8bb\L	.
!LO:TX:t=P:problem:krzyżyk poprzedzony kasownikiem	!	!	!
4B 4F#X'\ 4D# 4BB\	4ryy	8aa#X\	.
.	.	8bb\J)	.
=290	=290	=290	=290
(4A#X 4F##X/	2E\	(4.ccc# 4.ee^^\	.
8B 8G#/)	.	.	.
8r	.	8bb\L	.
!LO:TX:t=P:problem:krzyżyk poprzedzony kasownikiem	!	!	!
4B 4F#X'\ 4D# 4BB\	4ryy	8aa#X\	.
.	.	8bb\J)	.
=291	=291	=291	=291
(4A#X 4F##X/	2E\	(4.eee 4.ee^^\	.
8B 8G#/)	.	.	.
8r	.	8bb\L	.
!LO:TX:t=P:problem:krzyżyk poprzedzony kasownikiem	!	!	!
4B 4F#X'\ 4D# 4BB\	4ryy	8aa#X\	.
.	.	8bb\J)	.
*v	*v	*	*
=292	=292	=292
4E 4EE/	4eee 4ee\	ff
4c# 4C#\	8r	.
.	8ccc# 8cc#\	.
4B 4BB\	8r	.
.	8bb 8b\	.
=293	=293	=293
4G# 4GG#/	8r	.
.	8gg# 8g#\	.
4E 4EE/	8r	.
.	8ee 8e/	.
4C# 4CC#/	8r	.
.	8cc# 8c#/	.
!!LO:LB:g=original
=294	=294	=294
4BB 4BBB/	8r	.
.	8b 8B/	.
4G# 4GG#/	8r	.
.	8gg# 8g#\	.
4F# 4FF#/	8r	.
.	8ff# 8f#\	.
=295	=295	=295
4E 4EE/	8r	.
.	8ee 8e/	.
4B 4BB\	8r	.
.	8b\	.
4G# 4GG#/	8r	.
.	8g#/	.
=296	=296	=296
4E 4EE/	4e/	.
4r	4r	.
4r	4r	.
=297	=297	=297
4c# 4G# 4E 4C#\	4gg# 4ee 4cc# 4g#\	.
4r	4r	.
4r	4r	.
=298	=298	=298
4G# 4E 4BB 4GG#/	4ee 4b 4e/	.
4r	4r	.
4r	4r	.
=299	=299	=299
4g# 4e 4B 4G#\	4bb 4gg# 4ee 4b\	.
4r	4r	.
4r	4r	.
=300	=300	=300
2.E 2.EE;/	2.e;/	.
==	==	==
*-	*-	*-
!!!system-decoration: {(p1)}
!!!ENC: Andrzej Gręziak
!!!END: 2022-08-22
!!!ENC: Kamil Watkowski
!!!END: 2022-09-27
!!!RDF**kern: > = above
!!!RDF**kern: < = below
!!!RDF**kern: N = link!!!YEC: Copyright 2022 Narodowy Instytut Fryderyka Chopina (https://polishscores.org)
!!!YEM: License CC-BY-4.0 (https://creativecommons.org/licenses/by/4.0)
